public/payments/crypto/bnb.svg

<svg width="14" height="14" viewBox="0 0 14 14" fill="none" xmlns="http://www.w3.org/2000/svg">
<g clip-path="url(#clip0_209_143)">
<g filter="url(#filter0_d_209_143)">
<path d="M7 13.125C10.6244 13.125 13.5625 10.1869 13.5625 6.5625C13.5625 2.93813 10.6244 0 7 0C3.37563 0 0.4375 2.93813 0.4375 6.5625C0.4375 10.1869 3.37563 13.125 7 13.125Z" fill="black"/>
</g>
<path d="M7 13.125C10.6244 13.125 13.5625 10.1869 13.5625 6.5625C13.5625 2.93813 10.6244 0 7 0C3.37563 0 0.4375 2.93813 0.4375 6.5625C0.4375 10.1869 3.37563 13.125 7 13.125Z" fill="#F3BA2F"/>
<path style="mix-blend-mode:soft-light" d="M7 13.125C10.6244 13.125 13.5625 10.1869 13.5625 6.5625C13.5625 2.93813 10.6244 0 7 0C3.37563 0 0.4375 2.93813 0.4375 6.5625C0.4375 10.1869 3.37563 13.125 7 13.125Z" fill="url(#paint0_linear_209_143)"/>
<path d="M7 12.9062C10.5036 12.9062 13.3438 10.0661 13.3438 6.5625C13.3438 3.05894 10.5036 0.21875 7 0.21875C3.49644 0.21875 0.65625 3.05894 0.65625 6.5625C0.65625 10.0661 3.49644 12.9062 7 12.9062Z" stroke="black" stroke-opacity="0.097"/>
<g filter="url(#filter1_d_209_143)">
<path d="M5.30067 5.86434L6.99992 4.16513L8.70004 5.86521L9.68878 4.87646L6.99992 2.1875L4.31197 4.87559L5.30067 5.86434ZM2.625 6.56236L3.61378 5.57358L4.60249 6.5623L3.61372 7.55107L2.625 6.56236ZM5.30067 7.26066L6.99992 8.95987L8.69999 7.25983L9.68927 8.24806L9.68878 8.24858L6.99992 10.9375L4.31188 8.2495L4.31048 8.2481L5.30067 7.26066ZM9.39751 6.56291L10.3863 5.57413L11.375 6.56285L10.3862 7.55163L9.39751 6.56291ZM8.0028 6.56198L8.00371 6.56246L8.00323 6.56302L6.99992 7.56634L5.99752 6.5639L5.99612 6.56246L5.99752 6.5611L6.17322 6.38536L6.2584 6.30013H6.25844L6.99992 5.55866L8.00323 6.56198H8.0028Z" fill="black"/>
</g>
<path d="M5.30067 5.86434L6.99992 4.16513L8.70004 5.86521L9.68878 4.87646L6.99992 2.1875L4.31197 4.87559L5.30067 5.86434ZM2.625 6.56236L3.61378 5.57358L4.60249 6.5623L3.61372 7.55107L2.625 6.56236ZM5.30067 7.26066L6.99992 8.95987L8.69999 7.25983L9.68927 8.24806L9.68878 8.24858L6.99992 10.9375L4.31188 8.2495L4.31048 8.2481L5.30067 7.26066ZM9.39751 6.56291L10.3863 5.57413L11.375 6.56285L10.3862 7.55163L9.39751 6.56291ZM8.0028 6.56198L8.00371 6.56246L8.00323 6.56302L6.99992 7.56634L5.99752 6.5639L5.99612 6.56246L5.99752 6.5611L6.17322 6.38536L6.2584 6.30013H6.25844L6.99992 5.55866L8.00323 6.56198H8.0028Z" fill="white"/>
</g>
<defs>
<filter id="filter0_d_209_143" x="-0.5625" y="-0.5" width="15.125" height="15.125" filterUnits="userSpaceOnUse" color-interpolation-filters="sRGB">
<feFlood flood-opacity="0" result="BackgroundImageFix"/>
<feColorMatrix in="SourceAlpha" type="matrix" values="0 0 0 0 0 0 0 0 0 0 0 0 0 0 0 0 0 0 127 0" result="hardAlpha"/>
<feOffset dy="0.5"/>
<feGaussianBlur stdDeviation="0.5"/>
<feComposite in2="hardAlpha" operator="out"/>
<feColorMatrix type="matrix" values="0 0 0 0 0 0 0 0 0 0 0 0 0 0 0 0 0 0 0.199474 0"/>
<feBlend mode="normal" in2="BackgroundImageFix" result="effect1_dropShadow_209_143"/>
<feBlend mode="normal" in="SourceGraphic" in2="effect1_dropShadow_209_143" result="shape"/>
</filter>
<filter id="filter1_d_209_143" x="1.625" y="1.6875" width="10.75" height="10.75" filterUnits="userSpaceOnUse" color-interpolation-filters="sRGB">
<feFlood flood-opacity="0" result="BackgroundImageFix"/>
<feColorMatrix in="SourceAlpha" type="matrix" values="0 0 0 0 0 0 0 0 0 0 0 0 0 0 0 0 0 0 127 0" result="hardAlpha"/>
<feOffset dy="0.5"/>
<feGaussianBlur stdDeviation="0.5"/>
<feColorMatrix type="matrix" values="0 0 0 0 0 0 0 0 0 0 0 0 0 0 0 0 0 0 0.204257 0"/>
<feBlend mode="normal" in2="BackgroundImageFix" result="effect1_dropShadow_209_143"/>
<feBlend mode="normal" in="SourceGraphic" in2="effect1_dropShadow_209_143" result="shape"/>
</filter>
<linearGradient id="paint0_linear_209_143" x1="656.688" y1="0" x2="656.688" y2="1312.5" gradientUnits="userSpaceOnUse">
<stop stop-color="white" stop-opacity="0.5"/>
<stop offset="1" stop-opacity="0.5"/>
</linearGradient>
<clipPath id="clip0_209_143">
<rect width="14" height="14" fill="white"/>
</clipPath>
</defs>
</svg>

<svg xmlns="http://www.w3.org/2000/svg" width="14" height="14" fill="none"><g clip-path="url(#a)"><g filter="url(#b)"><path fill="#000" d="M7 13.13A6.56 6.56 0 1 0 7 0a6.56 6.56 0 0 0 0 13.13Z"/></g><path fill="#F3BA2F" d="M7 13.13A6.56 6.56 0 1 0 7 0a6.56 6.56 0 0 0 0 13.13Z"/><path fill="url(#c)" d="M7 13.13A6.56 6.56 0 1 0 7 0a6.56 6.56 0 0 0 0 13.13Z" style="mix-blend-mode:soft-light"/><path stroke="#000" stroke-opacity=".1" d="M7 12.9A6.34 6.34 0 1 0 7 .23 6.34 6.34 0 0 0 7 12.9Z"/><g filter="url(#d)"><path fill="#000" d="M5.3 5.86 7 4.16l1.7 1.7.99-.98L7 2.18l-2.69 2.7 1 .98Zm-2.67.7.98-.99 1 1-1 .98-.98-.99Zm2.67.7L7 8.96l1.7-1.7.99.99L7 10.94 4.31 8.25l1-.99Zm4.1-.7.99-.99.98 1-.98.98-1-.99Zm-1.4 0-1 1-1-1 .17-.17.09-.09.74-.74 1 1Z"/></g><path fill="#fff" d="M5.3 5.86 7 4.16l1.7 1.7.99-.98L7 2.18l-2.69 2.7 1 .98Zm-2.67.7.98-.99 1 1-1 .98-.98-.99Zm2.67.7L7 8.96l1.7-1.7.99.99L7 10.94 4.31 8.25l1-.99Zm4.1-.7.99-.99.98 1-.98.98-1-.99Zm-1.4 0-1 1-1-1 .17-.17.09-.09.74-.74 1 1Z"/></g><defs><filter id="b" width="15.13" height="15.13" x="-.56" y="-.5" color-interpolation-filters="sRGB" filterUnits="userSpaceOnUse"><feFlood flood-opacity="0" result="BackgroundImageFix"/><feColorMatrix in="SourceAlpha" result="hardAlpha" values="0 0 0 0 0 0 0 0 0 0 0 0 0 0 0 0 0 0 127 0"/><feOffset dy=".5"/><feGaussianBlur stdDeviation=".5"/><feComposite in2="hardAlpha" operator="out"/><feColorMatrix values="0 0 0 0 0 0 0 0 0 0 0 0 0 0 0 0 0 0 0.199474 0"/><feBlend in2="BackgroundImageFix" result="effect1_dropShadow_209_143"/><feBlend in="SourceGraphic" in2="effect1_dropShadow_209_143" result="shape"/></filter><filter id="d" width="10.75" height="10.75" x="1.63" y="1.69" color-interpolation-filters="sRGB" filterUnits="userSpaceOnUse"><feFlood flood-opacity="0" result="BackgroundImageFix"/><feColorMatrix in="SourceAlpha" result="hardAlpha" values="0 0 0 0 0 0 0 0 0 0 0 0 0 0 0 0 0 0 127 0"/><feOffset dy=".5"/><feGaussianBlur stdDeviation=".5"/><feColorMatrix values="0 0 0 0 0 0 0 0 0 0 0 0 0 0 0 0 0 0 0.204257 0"/><feBlend in2="BackgroundImageFix" result="effect1_dropShadow_209_143"/><feBlend in="SourceGraphic" in2="effect1_dropShadow_209_143" result="shape"/></filter><linearGradient id="c" x1="656.69" x2="656.69" y1="0" y2="1312.5" gradientUnits="userSpaceOnUse"><stop stop-color="#fff" stop-opacity=".5"/><stop offset="1" stop-opacity=".5"/></linearGradient><clipPath id="a"><path fill="#fff" d="M0 0h14v14H0z"/></clipPath></defs></svg>
